images/global/icons/experiential/antenna.svg

<svg xmlns="http://www.w3.org/2000/svg" viewBox="0 0 276 137"><g data-name="Layer 1"><path d="M124.82 23.42a13.05 13.05 0 0 0 .42 18.47m-8.15-23.32a19.92 19.92 0 0 0 .71 28.18m42.01-28.18a19.92 19.92 0 0 1-.71 28.18M152 23.42a13.05 13.05 0 0 1-.42 18.47" fill="none" stroke="#0e1f2d" stroke-linecap="round" stroke-miterlimit="10" stroke-width="3"/><path fill="#0e1f2d" d="M136.79 38.63l-10.95 26.8-.7 1.7-.69 1.7-5.37 13.11-1.38 3.4-10.33 25.26-1.75 4.28-1.45 3.56h-3.55l33.18-81.18 2.99 1.37zm38.59 79.81h-3.55l-1.47-3.59-1.75-4.29-10.31-25.22-1.39-3.4-5.36-13.11-.7-1.69-.69-1.71-10.96-26.81 3-1.36 33.18 81.18z"/><path fill="none" stroke="#0e1f2d" stroke-miterlimit="10" stroke-width="3" d="M127.33 55.12h21.34m-28.29 18.23h35.08m-44.06 21.5h52.66m-35.61-39.73l27.81 20.41m-8.71-20.41l-27.81 20.41m36.52 0L112.04 95.6m7.41-21.16l44.51 21.16m-34.28-40.48l12.67-12.67m3.97 12.67l-13.16-13.16m-23.21 53.97l60.29 14.63m-4.19-14.63l-60.71 14.73"/><circle cx="138" cy="33.13" r="6.58" fill="#0e1f2d"/></g></svg>

<svg xmlns="http://www.w3.org/2000/svg" viewBox="0 0 276 137"><title>_16</title><g data-name="Layer 1"><path d="M124.82 23.42a13.05 13.05 0 0 0 .42 18.47M117.09 18.57a19.92 19.92 0 0 0 .71 28.18M159.81 18.57a19.92 19.92 0 0 1-.71 28.18M152 23.42a13.05 13.05 0 0 1-.42 18.47" fill="none" stroke="#0e1f2d" stroke-linecap="round" stroke-miterlimit="10" stroke-width="3"/><path fill="#0e1f2d" d="M136.79 38.63l-10.95 26.8-.7 1.7-.69 1.7-5.37 13.11-1.38 3.4-10.33 25.26-1.75 4.28-1.45 3.56h-3.55l33.18-81.18 2.99 1.37zM175.38 118.44h-3.55l-1.47-3.59-1.75-4.29-10.31-25.22-1.39-3.4-5.36-13.11-.7-1.69-.69-1.71-10.96-26.81 3-1.36 33.18 81.18z"/><path fill="none" stroke="#0e1f2d" stroke-miterlimit="10" stroke-width="3" d="M127.33 55.12h21.34M120.38 73.35h35.08M111.4 94.85h52.66M128.45 55.12l27.81 20.41M147.55 55.12l-27.81 20.41M156.26 75.53L112.04 95.6M119.45 74.44l44.51 21.16M129.68 55.12l12.67-12.67M146.32 55.12l-13.16-13.16M109.95 95.93l60.29 14.63M166.05 95.93l-60.71 14.73"/><circle cx="138" cy="33.13" r="6.58" fill="#0e1f2d"/></g></svg>
